icons-dark/actions/24/view-sort-ascending.svg

<?xml version="1.0" encoding="UTF-8" standalone="no"?>
<!-- Created with Inkscape (http://www.inkscape.org/) -->

<svg
   xmlns:dc="http://purl.org/dc/elements/1.1/"
   xmlns:cc="http://creativecommons.org/ns#"
   xmlns:rdf="http://www.w3.org/1999/02/22-rdf-syntax-ns#"
   xmlns:svg="http://www.w3.org/2000/svg"
   xmlns="http://www.w3.org/2000/svg"
   xmlns:sodipodi="http://sodipodi.sourceforge.net/DTD/sodipodi-0.dtd"
   xmlns:inkscape="http://www.inkscape.org/namespaces/inkscape"
   width="24"
   height="24"
   id="svg3869"
   version="1.1"
   inkscape:version="0.91 r13725"
   sodipodi:docname="view-sort-ascending.svg">
  <defs
     id="defs3871">
    <linearGradient
       id="linearGradient4066">
      <stop
         offset="0"
         style="stop-color:#dbc9ee;stop-opacity:1"
         id="stop4068" />
      <stop
         offset="1"
         style="stop-color:#faf7fd;stop-opacity:1"
         id="stop4070" />
    </linearGradient>
    <linearGradient
       id="linearGradient3843-5">
      <stop
         id="stop3845-0"
         style="stop-color:#5a2c8b;stop-opacity:1"
         offset="0" />
      <stop
         id="stop3847-4"
         style="stop-color:#9d59cf;stop-opacity:1"
         offset="1" />
    </linearGradient>
    <clipPath
       clipPathUnits="userSpaceOnUse"
       id="clipPath4160">
      <rect
         style="opacity:1;fill:#f2f2f2;fill-opacity:1;stroke:none;stroke-opacity:1"
         id="rect4162"
         width="1"
         height="1"
         x="7"
         y="1023.3622" />
    </clipPath>
    <linearGradient
       id="linearGradient4290-48">
      <stop
         style="stop-color:#a5a5a5;stop-opacity:1;"
         offset="0"
         id="stop4292-0" />
      <stop
         style="stop-color:#f5f2f5;stop-opacity:1;"
         offset="1"
         id="stop4294-0" />
    </linearGradient>
    <inkscape:perspective
       sodipodi:type="inkscape:persp3d"
       inkscape:vp_x="0 : 12 : 1"
       inkscape:vp_y="0 : 1000 : 0"
       inkscape:vp_z="24 : 12 : 1"
       inkscape:persp3d-origin="12 : 8 : 1"
       id="perspective4146-9" />
    <inkscape:perspective
       sodipodi:type="inkscape:persp3d"
       inkscape:vp_x="0 : 12 : 1"
       inkscape:vp_y="0 : 1000 : 0"
       inkscape:vp_z="24 : 12 : 1"
       inkscape:persp3d-origin="12 : 8 : 1"
       id="perspective4146" />
  </defs>
  <sodipodi:namedview
     id="base"
     pagecolor="#ffffff"
     bordercolor="#666666"
     borderopacity="1.0"
     inkscape:pageopacity="0.0"
     inkscape:pageshadow="2"
     inkscape:zoom="22.627416"
     inkscape:cx="5.4926209"
     inkscape:cy="10.264796"
     inkscape:document-units="px"
     inkscape:current-layer="layer1"
     showgrid="true"
     fit-margin-top="0"
     fit-margin-left="0"
     fit-margin-right="0"
     fit-margin-bottom="0"
     inkscape:window-width="1366"
     inkscape:window-height="709"
     inkscape:window-x="-4"
     inkscape:window-y="0"
     inkscape:window-maximized="1"
     inkscape:showpageshadow="false"
     inkscape:snap-bbox="true"
     inkscape:object-nodes="true">
    <inkscape:grid
       type="xygrid"
       id="grid4132" />
    <sodipodi:guide
       position="4,18"
       orientation="18,0"
       id="guide4138" />
    <sodipodi:guide
       position="5,3"
       orientation="0,18"
       id="guide4140" />
    <sodipodi:guide
       position="20,2.0000174"
       orientation="-18,0"
       id="guide4142" />
    <sodipodi:guide
       position="2,21"
       orientation="0,-18"
       id="guide4144" />
    <sodipodi:guide
       position="3,19.000017"
       orientation="16,0"
       id="guide4146" />
    <sodipodi:guide
       position="2,4"
       orientation="0,16"
       id="guide4148" />
    <sodipodi:guide
       position="21,20"
       orientation="-16,0"
       id="guide4150" />
    <sodipodi:guide
       position="2,20"
       orientation="0,-16"
       id="guide4152" />
  </sodipodi:namedview>
  <metadata
     id="metadata3874">
    <rdf:RDF>
      <cc:Work
         rdf:about="">
        <dc:format>image/svg+xml</dc:format>
        <dc:type
           rdf:resource="http://purl.org/dc/dcmitype/StillImage" />
        <dc:title></dc:title>
      </cc:Work>
    </rdf:RDF>
  </metadata>
  <g
     inkscape:label="Capa 1"
     inkscape:groupmode="layer"
     id="layer1"
     transform="translate(-326,-532.3622)">
    <g
       transform="translate(-94.71429,7.57146)"
       id="layer1-2"
       inkscape:label="Capa 1">
      <path
         id="rect4071"
         transform="translate(421.71429,525.79074)"
         d="M 7.0957031,3 C 6.3124631,3.0182 5.7105975,3.1551087 5.2734375,3.3554688 l 0.2460937,0.9003906 c 0.2094701,-0.0729 1.0023169,-0.3261719 1.4667969,-0.3261719 l 0.0625,0 c 0.64663,0.0273 0.6933594,0.2628094 0.6933594,0.8183594 l 0,0.21875 -0.3378906,0.054687 C 5.8378069,5.2491744 5,5.4403881 5,6.6425781 5,7.4804681 5.6107106,8 6.4941406,8 7.1043406,8 7.5042325,7.7445175 7.9140625,7.3984375 l 0.1269531,0.5097656 0.9667969,0 0,-3.3691406 C 9.0078125,3.5099225 8.296025,3 7.203125,3 L 7.0957031,3 Z m 0.6464844,2.6777344 0,1.1191406 c -0.33697,0.22769 -0.5921369,0.3925781 -1.0292969,0.3925781 -0.39162,0 -0.5839844,-0.2457168 -0.5839844,-0.5917969 0,-0.65574 0.5741107,-0.7650543 1.2753907,-0.8652343 L 7.7421875,5.6777344 Z M 13.5,8.7929688 13.292969,9 10,12.292969 10.707031,13 13,10.707031 13,19 14,19 14,10.707031 16.292969,13 17,12.292969 13.707031,9 13.5,8.7929688 Z m -8.3886719,0.40625 0,0.8144532 2.0722657,0 L 5,13.269531 5,14 l 3.828125,0 0,-0.851562 -2.2460938,0 2.1738282,-3.2910161 0,-0.6582031 -3.6445313,0 z"
         style="fill:#f2f2f2;fill-opacity:1;stroke:none"
         inkscape:connector-curvature="0" />
    </g>
  </g>
</svg>

<svg xmlns="http://www.w3.org/2000/svg" viewBox="0 0 24 24">
  <defs id="defs3051">
    <style type="text/css" id="current-color-scheme">
      .ColorScheme-Text {
        color:#f2f2f2
      }
      </style>
  </defs>
  <a transform="translate(1,1)">
 <path 
    style="fill:currentColor;fill-opacity:1;stroke:none" 
    d="M 7.0957031 3 C 6.3124631 3.0182 5.7105975 3.1551087 5.2734375 3.3554688 L 5.5195312 4.2558594 C 5.7290012 4.1829594 6.5218511 3.9296875 6.9863281 3.9296875 L 7.0488281 3.9296875 C 7.6954581 3.9569875 7.7421875 4.1924969 7.7421875 4.7480469 L 7.7421875 4.9667969 L 7.4042969 5.0214844 C 5.8378069 5.2491744 5 5.4403881 5 6.6425781 C 5 7.4804681 5.6107106 8 6.4941406 8 C 7.1043406 8 7.5042305 7.7445175 7.9140625 7.3984375 L 8.0410156 7.9082031 L 9.0078125 7.9082031 L 9.0078125 4.5390625 C 9.0078125 3.5099225 8.296026 3 7.203125 3 L 7.0957031 3 z M 7.7421875 5.6777344 L 7.7421875 6.796875 C 7.4052175 7.024565 7.1500506 7.1894531 6.7128906 7.1894531 C 6.3212706 7.1894531 6.1289062 6.9437363 6.1289062 6.5976562 C 6.1289062 5.9419163 6.7030169 5.8326019 7.4042969 5.7324219 L 7.7421875 5.6777344 z M 13.5 8.7929688 L 13.292969 9 L 10 12.292969 L 10.707031 13 L 13 10.707031 L 13 19 L 14 19 L 14 10.707031 L 16.292969 13 L 17 12.292969 L 13.707031 9 L 13.5 8.7929688 z M 5.1113281 9.1992188 L 5.1113281 10.013672 L 7.1835938 10.013672 L 5 13.269531 L 5 14 L 8.828125 14 L 8.828125 13.148438 L 6.5820312 13.148438 L 8.7558594 9.8574219 L 8.7558594 9.1992188 L 5.1113281 9.1992188 z "
	class="ColorScheme-Text"
    />  
 </a>
</svg>
